symbols/web/3mp/materialsymbolsoutlined/3mp_grad200_24px.svg

<svg xmlns="http://www.w3.org/2000/svg" height="24" width="24"><path d="M9.725 11.65h3.55q.425 0 .713-.288.287-.287.287-.712v-4.1q0-.425-.287-.712-.288-.288-.713-.288h-3.55v1.5h3.05V8.1h-2v1h2v1.05h-3.05ZM5.9 18.5h1.5v-4.55h1.05v3h1.5v-3H11v4.55h1.5v-5.1q0-.425-.287-.712-.288-.288-.713-.288H6.9q-.425 0-.712.288-.288.287-.288.712Zm7.65 0h1.5v-1.6h2.05q.425 0 .712-.288.288-.287.288-.712v-2.5q0-.425-.288-.712-.287-.288-.712-.288h-3.55Zm1.5-3.1v-1.45h1.55v1.45ZM5 21.65q-1.1 0-1.875-.775Q2.35 20.1 2.35 19V5q0-1.1.775-1.875Q3.9 2.35 5 2.35h14q1.1 0 1.875.775.775.775.775 1.875v14q0 1.1-.775 1.875-.775.775-1.875.775ZM5 19h14V5H5v14ZM5 5v14V5Z"/></svg>

<svg xmlns="http://www.w3.org/2000/svg" height="24" width="24"><path d="M9.725 11.65H13.275Q13.7 11.65 13.988 11.362Q14.275 11.075 14.275 10.65V6.55Q14.275 6.125 13.988 5.838Q13.7 5.55 13.275 5.55H9.725V7.05H12.775V8.1H10.775V9.1H12.775V10.15H9.725ZM5 21.65Q3.9 21.65 3.125 20.875Q2.35 20.1 2.35 19V5Q2.35 3.9 3.125 3.125Q3.9 2.35 5 2.35H19Q20.1 2.35 20.875 3.125Q21.65 3.9 21.65 5V19Q21.65 20.1 20.875 20.875Q20.1 21.65 19 21.65ZM5 19H19Q19 19 19 19Q19 19 19 19V5Q19 5 19 5Q19 5 19 5H5Q5 5 5 5Q5 5 5 5V19Q5 19 5 19Q5 19 5 19ZM5 5Q5 5 5 5Q5 5 5 5V19Q5 19 5 19Q5 19 5 19Q5 19 5 19Q5 19 5 19V5Q5 5 5 5Q5 5 5 5ZM6.9 12.4Q6.475 12.4 6.188 12.688Q5.9 12.975 5.9 13.4V18.5H7.4V13.95H8.45V16.95H9.95V13.95H11V18.5H12.5V13.4Q12.5 12.975 12.213 12.688Q11.925 12.4 11.5 12.4ZM13.55 12.4V18.5H15.05V16.9H17.1Q17.525 16.9 17.812 16.612Q18.1 16.325 18.1 15.9V13.4Q18.1 12.975 17.812 12.688Q17.525 12.4 17.1 12.4ZM15.05 13.95H16.6V15.4H15.05Z"/></svg>
